X:1
T: Mrs. Campbell of Kinloch
C:
R:Strathspey
Q: 128
K:A
M:4/4
L:1/16
|:c2|e3f e3c e3f e2c2|B3c d2e2 fB3 B2cd|e3f e3c A3a g3f|e3c d3B c2A2 A2c2|
e3f e3c e3f e2c2|B3c d2e2 fB3 B2cd|e3f e3c A3a g3f|e3c d3B c2A2 A2E2|
C3A, A3E c2A2 e2c2|d3e fedc BF3 FB3|A3c E3c Bd3 E2d2|Af3 e3d cA3 A2E2|
C3A, A3E c2A2 e2c2|d3e fedc BF3 FB3|A3c E3c Bd3 E2d2|cagf edcB cA3 A2:|
